X: 33860
T: Reculver, The
R: polka
M: 2/4
K: Amajor
|:AA/A/ AG|AE CE|AA/A/ AF|GE FG|
AA/A/ AG|AE CE|DB, EC|A,2 A,2:|
|:A2 AB|c2 A2|B2 Bc|d2 B2|
c2 cd|e2 c2|B2 G2|AE FG:|

